!!!!SEGMENT: pl-wnifc--493-n--012_oginski-michal-kleofas--16-polonaises-12-polonaise-in-a.krn
!!!cenid: 18xx:3871
!!!COM: Ogiński, Michał Kleofas
!!!COM-rismID: pe30002379
!!!CDT: 1765/09/25-1833/10/15
!!!CNT:
!!!OTL: 16 Polonaises
!!!PDT: 1864
!!!AGN:
!!!SMS-siglum: PL-Wnifc
!!!SMS-shelfmark: 493/n
!!!SMS-shelfwork: 012 W
!!!SMS-variant:
!!!SMS-altvar:
!!!NIFC-rismSourceID: 1001157364
!!!URL-scan: https://polish.musicsources.pl/pl/lokalizacje/galeria/druki-muzyczne/16843 @EN{Scan on Polish Music Sources Website} @PL{Skany w portalu Dziedzictwo Muzyki Polskiej w otwartym dostępie}
!!!ONB-nifc: UWAGA: w zbiorze znajduje się 14 Polonezów z Triami, pliki są numerowane jak w źródle.
!!!AIN: 2 piano
!!!key: a
**kern	**kern	**dynam
*part2	*part1	*part1
*staff2	*staff1	*
*I"Piano.	*I"Piano.	*
*Ipiano	*Ipiano	*
*ICklav	*ICklav	*
*clefF4	*clefG2	*
*k[]	*k[]	*
*a:	*a:	*
*M3/4	*M3/4	*
=1	=1	=1
!	!LO:TX:a:B:t=Moderato tristamente.	!
8AA\L	8ee\	mf
8E\ 8A 8c	4ee^\	.
8E\ 8A 8c	.	.
8E\J 8A 8c	16dd#X\LL	.
.	16ee\JJ	.
8AA\L	8ff\L	.
8E\J 8A 8c	8ee\J	.
=2	=2	=2
8AA\L	8.ccM\L	.
8E\J 8A 8c	.	.
.	16b\Jk	.
8E\L 8A 8c	([>4a/	.
8E\ 8A 8c	.	.
8E\ 8A 8c	16a\LL]	.
.	16b\	.
8E\J 8A 8c	16cc\	.
.	16dd\JJ)	.
=3	=3	=3
*^	*	*
!	!LO:N:vis=2	!	!
2C/	8C\L	8ee\	.
.	8E\ 8A	4ee^\	.
.	8E\ 8A	.	.
.	.	(16qqff/LL	.
.	.	16qqee/JJ)	.
.	8E\J 8A	16dd#X\LL	.
.	.	16ee\JJ	.
4C#X/	8C#\L	(8.aa\L	.
.	8E\J 8A	.	.
.	.	16ee\Jk)	.
!!LO:LB:g=original
=4	=4	=4	=4
!	!LO:N:vis=2	!	!
2D/	8D\L	(8.gg^\L	.
.	8A\ 8d	.	.
.	.	16ff#X\Jk	.
.	8A\ 8d	4.ffn\)	.
.	8A\J 8d	.	.
4D/	8D\L	.	.
.	8F\J 8A 8d	8dd\	.
=5	=5	=5	=5
.	.	8qdd/	.
!	!LO:N:vis=2	!	!
2E/	8E\L	(8.bb^\L	.
.	8B\ 8d	.	.
.	.	16aa\Jk)	.
.	8B\ 8d	(8.gg#X^\L	.
.	8B\J 8d	.	.
.	.	16ff\Jk)	.
4E/	8E\L	(8.ee^\L	.
.	8G#X\J 8d	.	.
.	.	16dd#X\Jk)	.
=6	=6	=6	=6
8AA\L	2rEEyy	(16ee\LL	.
.	.	16ff\	.
8E\ 8A 8c	.	16ee\	.
.	.	16ddn\JJ	.
8E\ 8A 8c	.	4cc\)	.
8E\J 8A 8c	.	.	.
4C/	8C\L	8r	.
.	8E\J 8A	8a/	.
=7	=7	=7	=7
!	!LO:N:vis=2	!	!
2D/	8D\L	8b'\L	.
.	8F\ 8B	([8b\J	.
.	8F\ 8B	16b\LL]	.
.	.	(16dd\	.
.	8F\J 8B	16ff\)	.
.	.	(16ee\JJ	.
4D/	8D\L	16dd\LL)	.
.	.	(16cc\	.
.	8F\J 8B	16b\)	.
.	.	16a\JJ)	.
*v	*v	*	*
!!LO:LB:g=original
=8	=8	=8
8E\L	(16g#X\LL	.
.	16b\	.
8E\J 8B 8d	16ee\	.
.	16gg#X\JJ)	.
8r	(4bb^\	.
(((8E\L 8G#X 8d	.	.
8A\J))) 8c	8aa\)	.
!	!LO:TX:a:t=Fine	!
8r	8r	.
=9:|!	=9:|!	=9:|!
8EE/L	8ee\	p
!	!LO:TX:b:i:t=espress.	!
!	!LO:TUP:a	!
8E/J	(24ee\LL	.
.	24gg#X\	.
.	24bb\JJ	.
8G#X\L 8B	4.eee\	.
8E\	.	.
8G#\ 8B	.	.
8E\J	8ddd\)	.
=10	=10	=10
8EE/L	(4.ccc\	.
8E/J	.	.
8A\L 8c	.	.
8E\	16fff\LL	.
.	16eee\JJ	.
8A\ 8c	16ddd\LL	.
.	16ccc\	.
8E\J	16bb\	.
.	16aa\JJ)	.
=11	=11	=11
8EE/L	(16gg#X\LL	.
.	16ee\	.
8E/J	16gg#\	.
.	16bb\JJ	.
8G#X\L 8B	4.eee\	.
8E\	.	.
8G#\ 8B	.	.
8E\J	8ddd\)	.
!!LO:LB:g=original
=12	=12	=12
8EE/L	(4.ccc\	.
8E/J	.	.
8A\L 8c	.	.
8E\	16fff\LL	.
.	16eee\JJ	.
8A\ 8c	16ddd\LL	.
.	16ccc\	.
8E\J	16bb\	.
.	16aa\JJ)	.
=13	=13	=13
4E;\ 4B 4e	4gg#X;\	.
4r	(16e/LL	.
.	16g#X/	.
.	16b/	.
.	16a/JJ	.
4r	16g#\LL	.
.	16b\	.
.	16dd\	.
.	16cc\JJ)	.
=14	=14	=14
2.r	(16b\LL	<
.	16dd\	.
.	16ff\	.
.	16ee\JJ	.
.	16dd\LL	.
.	16gg#X\	.
.	16bb\	.
.	16aa\JJ	.
.	16gg#\LL	.
.	16bb\)	.
.	16.fff;\	.
.	32eee\JJk	[[
=15	=15	=15
8.AA\L 8.C 8.E 8.A	8.ee\L 8.eee	f
16B\Jk	16dd#X\Jk 16ddd#X	.
8c\L	8ee\L 8eee	.
8d\	8ff\ 8fff	.
8c\	8ee\ 8eee	.
8B\J	8ddn\J 8dddn	.
!!LO:PB:g=original
=16	=16	=16
8AA\L 8A	8.cc\L 8.ccc	.
8E\J 8A 8c	.	.
.	16b\Jk 16bb	.
8E\L 8A 8c	4.a\ 4.aa	.
8E\ 8A 8c	.	.
8E\ 8A 8c	.	.
8E\J 8A 8c	8cc\ 8ccc	.
=17	=17	=17
8EE\L 8E	8b\L 8bb	.
8E\J 8B 8d	(16bb\L	.
.	16eee\JJ)	.
8E\L 8B 8d	(4.ee\	.
8E\ 8B 8d	.	.
8E\ 8B 8d	.	.
8E\J 8B 8d	8gg#X\)	.
=18	=18	=18
8AA\L	(16aa\LL	.
.	16gg#X\	.
8E\J 8A 8c	16aa\	.
.	16bb\JJ)	.
8E\L 8A 8c	(16ccc\LL	.
.	16bb\	.
8E\ 8A 8c	16ccc\	.
.	16ddd\JJ)	.
8E\ 8A 8c	(8eee\L	.
8E\J 8A 8c	8ccc\J)	.
=19	=19	=19
8EE\L 8E	8bb\L	.
8E\J 8B 8d	(16bb\L	.
.	16eee\JJ)	.
8E\L 8B 8d	(4.ee\	.
8E\ 8B 8d	.	.
8E\ 8B 8d	.	.
8E\J 8B 8d	8gg#X\)	.
=20	=20	=20
8A\L 8c	(16aa\LL	.
.	16gg#X\	.
8E\J 8G#X 8d	16ccc\	.
.	16bb\JJ)	.
8r	((4dd\ 4bb	.
8EE/L 8E	.	.
8AA/J 8E	8cc\)) 8aa	.
8r	8r	.
!!LO:LB:g=original
=21:|!	=21:|!	=21:|!
!	!LO:TX:a:B:t=Trio.	!
8C\L 8G 8c	8e/L 8g 8cc	f
16C\L 16G 16c	16e/L 16g 16cc	.
16C\JJ 16G 16c	16e/JJ 16g 16cc	.
8C\L 8G 8c	8e/L 8g 8cc	.
8C\J 8G 8c	8e/J 8cc	.
8G\L 8d	8g\L 8b 8dd	.
8G\J 8d	8g\J 8b 8dd	.
=22	=22	=22
8c\L 8e	8g\L 8cc 8ee	.
16c\L 16e	16g\L 16cc 16ee	.
16c\JJ 16e	16g\JJ 16cc 16ee	.
8c\L 8e	8g\L 8cc 8ee	.
8c\J 8e	8g\J 8cc 8ee	.
8G\L 8B	8f/L 8g 8dd	.
8G\J 8B	8f/J 8g 8dd	.
=23	=23	=23
8C\L 8G 8c	8e/L 8g 8cc	.
16C\L 16G 16c	16e/L 16g 16cc	.
16C\JJ 16G 16c	16e/JJ 16g 16cc	.
8C\L 8G 8c	8e/L 8g 8cc	.
8C\ 8c	8g/ 8ee	.
8D\ 8A	8f#X/ 8dd	.
8D\J 8A	8f#/J 8cc	.
!!LO:LB:g=original
=24	=24	=24
8G\L	8g'\L 8b	.
8G\J 8B	(16b\L	.
.	16cc\JJ)	.
8D\L 8F#X 8c	8a'/L	.
8D\J 8F# 8c	(16a/L	.
.	16b/JJ)	.
4G\ 4B	4g/	.
=25	=25	=25
*	*8va	*
!	!LO:TX:b:i:t=dolce.	!
8C\L	[4ccc\	p
8G\J	.	.
8c\L 8e	16ccc\LL]	.
.	(16gg\	.
8G\	16aa\	.
.	16bb\JJ	.
8c\ 8e	16ccc\LL	.
.	16ddd\	.
8G\J	16eee\	.
.	16ccc\JJ	.
=26	=26	=26
8GG\L	8.bb\L)	.
8G\J	.	.
.	16ddd\Jk	.
8d\L 8f	8.fff\L	.
8G\	.	.
.	(<16gg\Jk	.
8d\ 8f	16ff#X/LL	.
.	16gg/	.
8G\J	16aa/	.
.	16bb/JJ)	.
!!LO:LB:g=original
=27	=27	=27
8C\L	[4ccc\	.
8G\J	.	.
8c\L 8e	16ccc\LL]	.
.	(16gg\	.
8G\	16aa\	.
.	16bb\JJ	.
8c\ 8e	16ccc\LL	.
.	16ddd\	.
8G\J	16eee\	.
.	16ccc\JJ	.
=28	=28	=28
8GG\L	8.bb\L)	.
8G\J	.	.
.	16ddd\Jk	.
8d\L 8f	8.fff\L	.
8G\	.	.
.	(16gg\Jk	.
8d\ 8f	16ff#X/LL	.
.	16gg/	.
8G\J	16aa/	.
.	16bb/JJ	.
=29	=29	=29
16C\LL	8.ccc\L)	f
16G\	.	.
16E\	.	.
16G\JJ	16ddd\Jk	.
16C\LL	8eee\L	.
16G\	.	.
16E\	8ggg\	.
16G\JJ	.	.
16BB\LL	8fff\	.
16G\	.	.
16D\	8ddd\J	.
16G\JJ	.	.
!!LO:LB:g=original
=30	=30	=30
16C\LL	8.eee\L	.
16G\	.	.
16E\	.	.
16G\JJ	16ddd#X\Jk	.
16C\LL	8eee\L	.
16G\	.	.
16E\	8ggg\	.
16G\JJ	.	.
16BB\LL	8fff\	.
16G\	.	.
16D\	8dddn\J	.
16G\JJ	.	.
=31	=31	=31
16C\LL	(8.eee\L	.
16G\	.	.
16E\	.	.
16G\JJ	16ddd\Jk	.
16E\LL	16ccc\LL	.
16c\	16bb\	.
16G\	16ddd\	.
16c\JJ	16ccc\JJ	.
*	*X8va	*
16F\LL	16bb\LL	.
16d\	16aa\	.
16A\	16gg\	.
16d\JJ	16ff\JJ)	.
=32	=32	=32
8G\L	(16ee\LL	.
.	16gg\	.
8G\J 8B 8f	16ff\	.
.	16dd\JJ)	.
8r	(4dd\	.
!LO:TX:b:i:t=Da Capo al Fine.	!	!
(((8G\L 8B 8f	.	.
8c\J))) 8e	8cc\)	.
8r	8r	.
=:|!	=:|!	=:|!
*-	*-	*-
!!!RDF**kern: > = above
!!!RDF**kern: < = below
!!!system-decoration: [(s1,s2)]
!!!ENC: Solarz Mateusz
!!!END: 2022-07-25
!!!ENC: Urszula Świątek
!!!END: 2022-08-22
